src/assets/card1.svg

<svg width="72" height="73" viewBox="0 0 72 73" fill="none" xmlns="http://www.w3.org/2000/svg">
<g clip-path="url(#clip0_0_184)">
<path d="M66.4024 31.0199C68.5917 29.2157 70.3649 27.3146 70.3994 24.0968H62.4055C62.442 27.3108 64.2241 29.217 66.4024 31.0199C64.2309 32.8154 62.426 34.7253 62.4055 37.943H70.3994C70.3506 34.7323 68.5561 32.8483 66.4024 31.0199Z" fill="white"/>
<path d="M70.923 24.8661H61.8818C61.6778 24.8661 61.4821 24.7851 61.3379 24.6408C61.1936 24.4965 61.1125 24.3009 61.1125 24.0969C61.1125 23.8929 61.1936 23.6972 61.3379 23.5529C61.4821 23.4087 61.6778 23.3276 61.8818 23.3276H70.923C71.127 23.3276 71.3227 23.4087 71.4669 23.5529C71.6112 23.6972 71.6922 23.8929 71.6922 24.0969C71.6922 24.3009 71.6112 24.4965 71.4669 24.6408C71.3227 24.7851 71.127 24.8661 70.923 24.8661ZM70.923 38.7123H61.8818C61.6778 38.7123 61.4821 38.6312 61.3379 38.4869C61.1936 38.3427 61.1125 38.147 61.1125 37.943C61.1125 37.739 61.1936 37.5434 61.3379 37.3991C61.4821 37.2548 61.6778 37.1738 61.8818 37.1738H70.923C71.127 37.1738 71.3227 37.2548 71.4669 37.3991C71.6112 37.5434 71.6922 37.739 71.6922 37.943C71.6922 38.147 71.6112 38.3427 71.4669 38.4869C71.3227 38.6312 71.127 38.7123 70.923 38.7123Z" fill="#1F81B0"/>
<path d="M15.5228 32.2906V29.7657L13.7298 29.3274C13.6001 28.8698 13.418 28.4287 13.1869 28.0129L14.148 26.4297L12.3628 24.6443L10.7842 25.6028C10.3692 25.3705 9.92871 25.187 9.47154 25.056L9.032 23.2577H6.50738L6.06908 25.0509C5.61151 25.1806 5.17048 25.3628 4.75477 25.5938L3.17169 24.6326L1.38646 26.418L2.34492 27.9968C2.11261 28.4118 1.92914 28.8523 1.79815 29.3095L0 29.7491V32.274L1.79292 32.7123C1.92263 33.1699 2.10482 33.611 2.33585 34.0268L1.37477 35.61L3.16 37.3954L4.73862 36.4369C5.15358 36.6692 5.59406 36.8527 6.05123 36.9837L6.49077 38.782H9.01538L9.45369 36.9888C9.91126 36.8591 10.3523 36.6769 10.768 36.4458L12.3511 37.4071L14.1363 35.6217L13.1778 34.0429C13.4102 33.6279 13.5936 33.1874 13.7246 32.7302L15.5228 32.2906Z" fill="#ED5132"/>
<path d="M7.7614 34.0442C9.43142 34.0442 10.7852 32.6902 10.7852 31.0199C10.7852 29.3496 9.43142 27.9956 7.7614 27.9956C6.09137 27.9956 4.73755 29.3496 4.73755 31.0199C4.73755 32.6902 6.09137 34.0442 7.7614 34.0442Z" fill="white"/>
<path d="M16.4136 41.9191L36.4017 30.186L56.3637 41.4854V60.8122L36.3887 72.5453L16.4136 61.2622V41.9191Z" fill="#F9F9F9"/>
<path d="M16.4136 41.9192V61.2623L36.3886 72.5453V53.2021L16.4136 41.9192Z" fill="#1F81B0"/>
<path d="M36.3887 53.2021V72.5453L56.3638 60.8122V41.4855L36.3887 53.2021Z" fill="#1F81B0"/>
<path d="M36.3888 53.2021L30.9622 59.7332L11.5076 48.0609L16.4137 41.9192L36.3888 53.2021Z" fill="#005680"/>
<path d="M36.3887 53.2021L42.2684 59.4296L61.2699 48.0609L56.3638 41.4855L36.3887 53.2021Z" fill="#005680"/>
<path d="M50.8016 21.1988C50.8016 13.2814 44.3267 6.86329 36.3395 6.86329C28.3522 6.86329 21.8773 13.2816 21.8773 21.1988C21.8773 25.4636 23.7565 29.2927 26.7388 31.9181C29.2664 34.1433 30.7973 37.3005 30.7973 40.6844V41.7238H41.8819V40.6844C41.8819 37.3005 43.4127 34.1433 45.9404 31.9181C48.9224 29.2927 50.8016 25.4638 50.8016 21.1988ZM36.3528 3.85006C36.1488 3.85006 35.9532 3.76901 35.8089 3.62476C35.6646 3.4805 35.5836 3.28484 35.5836 3.08083V1.31452C35.5836 1.11051 35.6646 0.914849 35.8089 0.770591C35.9532 0.626332 36.1488 0.545288 36.3528 0.545288C36.5569 0.545288 36.7525 0.626332 36.8968 0.770591C37.041 0.914849 37.1221 1.11051 37.1221 1.31452V3.08083C37.1221 3.28484 37.041 3.4805 36.8968 3.62476C36.7525 3.76901 36.5569 3.85006 36.3528 3.85006ZM21.7873 9.94437C21.6859 9.94451 21.5855 9.92455 21.492 9.88562C21.3984 9.84669 21.3134 9.78958 21.2421 9.7176L19.9995 8.46867C19.8564 8.32387 19.7766 8.12829 19.7775 7.92475C19.7784 7.72121 19.8599 7.52632 20.0042 7.38277C20.1484 7.23921 20.3437 7.15869 20.5473 7.15885C20.7508 7.159 20.946 7.23982 21.0901 7.3836L22.3327 8.63252C22.7875 9.0899 22.4319 9.94437 21.7873 9.94437ZM16.8353 19.9405H15.0781C14.8741 19.9405 14.6784 19.8595 14.5341 19.7152C14.3899 19.571 14.3088 19.3753 14.3088 19.1713C14.3088 18.9673 14.3899 18.7716 14.5341 18.6274C14.6784 18.4831 14.8741 18.4021 15.0781 18.4021H16.8353C17.0393 18.4021 17.235 18.4831 17.3792 18.6274C17.5235 18.7716 17.6045 18.9673 17.6045 19.1713C17.6045 19.3753 17.5235 19.571 17.3792 19.7152C17.235 19.8595 17.0393 19.9405 16.8353 19.9405ZM57.6996 19.8682H55.9424C55.7384 19.8682 55.5427 19.7872 55.3984 19.6429C55.2542 19.4987 55.1731 19.303 55.1731 19.099C55.1731 18.895 55.2542 18.6993 55.3984 18.5551C55.5427 18.4108 55.7384 18.3298 55.9424 18.3298H57.6996C57.9036 18.3298 58.0993 18.4108 58.2435 18.5551C58.3878 18.6993 58.4688 18.895 58.4688 19.099C58.4688 19.303 58.3878 19.4987 58.2435 19.6429C58.0993 19.7872 57.9036 19.8682 57.6996 19.8682ZM50.9396 9.89329C50.295 9.89329 49.9393 9.03883 50.3944 8.5816L51.637 7.33267C51.7081 7.26064 51.7928 7.20337 51.8862 7.16414C51.9795 7.1249 52.0797 7.10448 52.1809 7.10405C52.2822 7.10361 52.3825 7.12316 52.4762 7.16158C52.5698 7.20001 52.655 7.25655 52.7268 7.32796C52.7986 7.39937 52.8555 7.48425 52.8944 7.57772C52.9333 7.6712 52.9534 7.77143 52.9535 7.87268C52.9535 7.97393 52.9336 8.0742 52.8949 8.16773C52.8561 8.26127 52.7993 8.34623 52.7276 8.41775L51.485 9.66667C51.4136 9.73858 51.3286 9.79563 51.235 9.83453C51.1414 9.87342 51.041 9.89339 50.9396 9.89329Z" fill="#FFBF4D"/>
<path d="M42.1376 37.0421H30.6401C29.3456 37.0421 28.2964 38.0915 28.2964 39.3858C28.2964 40.6803 29.3458 41.7295 30.6401 41.7295H42.1376C43.4321 41.7295 44.4813 40.6801 44.4813 39.3858C44.4815 38.0913 43.4321 37.0421 42.1376 37.0421Z" fill="#1F81B0"/>
<path d="M41.7298 41.7295H31.0476V44.5709C31.0476 45.5904 31.8742 46.417 32.8938 46.417H39.8836C40.9031 46.417 41.7298 45.5904 41.7298 44.5709V41.7295Z" fill="#1F81B0"/>
<path d="M45.9223 22.0512C45.9223 21.2909 45.6808 20.5895 45.2737 20.0256C45.4912 19.5029 45.6027 18.9421 45.6019 18.3759C45.6019 16.0538 43.765 14.1713 41.499 14.1713C41.3522 14.1713 41.2073 14.1796 41.0645 14.195C40.5117 12.8915 38.9834 11.9541 37.1833 11.9541C35.6185 11.9541 34.2588 12.6623 33.5668 13.7035C33.0097 13.4749 32.3802 13.3453 31.7127 13.3453C29.4467 13.3453 27.6097 14.8301 27.6097 16.6616C27.6097 17.0729 27.703 17.4664 27.8723 17.8298C26.095 18.4133 24.8237 19.9644 24.8237 21.7867C24.8237 24.1089 26.8874 25.9913 29.4333 25.9913C30.3802 25.9913 31.2603 25.7306 31.9925 25.2838C32.6634 26.4769 33.9874 27.289 35.5117 27.289C37.0605 27.289 38.402 26.4503 39.0622 25.2258C38.722 26.4561 39.3917 27.7418 40.5785 28.1367C41.709 28.4578 42.4173 29.0599 42.9419 30.1012L45.574 27.823L43.6956 25.2539C44.988 24.8143 45.9223 23.547 45.9223 22.0512Z" fill="#FFF0DC"/>
<path d="M35.0379 15.7283C35.0419 15.9319 35.1256 16.1257 35.271 16.2682C35.4164 16.4107 35.6118 16.4906 35.8154 16.4906C36.019 16.4906 36.2144 16.4107 36.3598 16.2682C36.5052 16.1257 36.5889 15.9319 36.5929 15.7283C36.5929 14.4745 35.9303 13.3283 34.8137 12.5631C34.3185 12.8468 33.906 13.2179 33.6069 13.6474C34.4976 14.1217 35.0379 14.894 35.0379 15.7283ZM32.1234 23.1905C32.2102 23.0056 32.2207 22.794 32.1528 22.6014C32.0848 22.4088 31.9438 22.2506 31.7603 22.1611C31.5767 22.0716 31.3653 22.0579 31.1717 22.1229C30.9781 22.188 30.8178 22.3266 30.7256 22.5088C30.2211 23.5436 30.1472 24.7825 30.5225 25.8711C31.0324 25.7592 31.5209 25.5653 31.9686 25.2968C31.7486 24.6065 31.8052 23.8434 32.1234 23.1905ZM39.6374 22.686C39.4364 22.686 39.2434 22.6072 39.0997 22.4666C38.956 22.326 38.8731 22.1347 38.8686 21.9337L38.8682 21.9133C38.8488 21.0726 38.1732 20.398 37.3622 20.4193C36.9412 20.4263 36.5859 20.0913 36.5768 19.6665C36.5746 19.5655 36.5924 19.4651 36.6291 19.3709C36.6658 19.2768 36.7206 19.1908 36.7905 19.1179C36.8604 19.045 36.944 18.9865 37.0365 18.9459C37.129 18.9053 37.2286 18.8832 37.3296 18.8811C38.9916 18.847 40.3674 20.1905 40.4065 21.8785L40.4069 21.8997C40.4092 22.0007 40.3915 22.1012 40.3549 22.1953C40.3183 22.2895 40.2635 22.3755 40.1937 22.4485C40.1238 22.5215 40.0403 22.58 39.9478 22.6207C39.8554 22.6614 39.7558 22.6835 39.6548 22.6857L39.6374 22.686ZM43.8656 20.785C43.4114 20.7799 42.9416 21.0439 42.9416 21.5627C42.9416 22.0694 43.4209 22.3685 43.8831 22.3403L43.8914 22.3402C44.6265 22.3243 45.3254 22.0643 45.8936 21.6225C45.8219 21.0357 45.6077 20.4957 45.2852 20.0433C44.9449 20.492 44.4245 20.7705 43.8656 20.785ZM33.3783 20.7951C33.1968 20.7948 33.0211 20.7304 32.8825 20.6131C32.7439 20.4959 32.6512 20.3334 32.6208 20.1543C32.4482 19.1359 31.6797 18.4102 30.8034 18.4325C30.7024 18.435 30.6019 18.4176 30.5076 18.3812C30.4133 18.3448 30.3272 18.2901 30.254 18.2204C30.1809 18.1506 30.1223 18.0671 30.0815 17.9747C30.0407 17.8822 30.0186 17.7826 30.0163 17.6816C30.0115 17.4776 30.088 17.2801 30.2288 17.1325C30.3696 16.9849 30.5633 16.8993 30.7672 16.8945C32.4206 16.8526 33.836 18.1186 34.1376 19.8973C34.2166 20.3626 33.8459 20.7951 33.3783 20.7951Z" fill="#FFCE99"/>
<path d="M61.1145 69.4347C67.1265 69.4347 72.0001 64.5605 72.0001 58.5479C72.0001 52.5353 67.1265 47.6611 61.1145 47.6611C55.1026 47.6611 50.229 52.5353 50.229 58.5479C50.229 64.5605 55.1026 69.4347 61.1145 69.4347Z" fill="#70DA40"/>
<path d="M60.8622 62.1096C60.6582 62.1096 60.4625 62.0286 60.3182 61.8843C60.174 61.74 60.0929 61.5444 60.0929 61.3404V60.0545C60.0929 58.6599 61.0076 57.6973 61.8648 56.9047C62.7179 56.1158 63.0506 55.1039 62.7333 54.2639C62.1042 52.5993 58.8339 52.7007 58.8339 54.6944C58.8339 54.8984 58.7528 55.094 58.6086 55.2383C58.4643 55.3826 58.2687 55.4636 58.0646 55.4636C57.8606 55.4636 57.665 55.3826 57.5207 55.2383C57.3765 55.094 57.2954 54.8984 57.2954 54.6944C57.2954 51.0151 62.956 50.5016 64.1723 53.7201C64.7159 55.1582 64.2319 56.8113 62.9093 58.0342C62.0999 58.7827 61.6314 59.3531 61.6314 60.0545V61.3404C61.6314 61.5444 61.5504 61.74 61.4061 61.8843C61.2618 62.0286 61.0662 62.1096 60.8622 62.1096Z" fill="white"/>
<path d="M61.1144 65.6941C61.6728 65.6941 62.1254 65.2415 62.1254 64.6832C62.1254 64.1248 61.6728 63.6722 61.1144 63.6722C60.5561 63.6722 60.1035 64.1248 60.1035 64.6832C60.1035 65.2415 60.5561 65.6941 61.1144 65.6941Z" fill="white"/>
<path d="M11.6631 69.4347C17.675 69.4347 22.5487 64.5605 22.5487 58.5479C22.5487 52.5353 17.675 47.6611 11.6631 47.6611C5.65121 47.6611 0.777588 52.5353 0.777588 58.5479C0.777588 64.5605 5.65121 69.4347 11.6631 69.4347Z" fill="white"/>
<path d="M11.7 66.5339H11.6262C9.74095 66.5339 8.21265 65.0056 8.21265 63.1204V54.0918H15.1134V63.1204C15.1134 65.0056 13.5851 66.5339 11.7 66.5339Z" fill="#F7634B"/>
<path d="M16.0291 54.861H7.29682C7.09281 54.861 6.89715 54.7799 6.75289 54.6357C6.60863 54.4914 6.52759 54.2958 6.52759 54.0917C6.52759 53.8877 6.60863 53.6921 6.75289 53.5478C6.89715 53.4036 7.09281 53.3225 7.29682 53.3225H16.0291C16.2331 53.3225 16.4288 53.4036 16.5731 53.5478C16.7173 53.6921 16.7984 53.8877 16.7984 54.0917C16.7984 54.2958 16.7173 54.4914 16.5731 54.6357C16.4288 54.7799 16.2331 54.861 16.0291 54.861Z" fill="white"/>
<path d="M8.21289 60.3129V63.0832C8.21289 64.989 9.75766 66.5339 11.6632 66.5339C13.5687 66.5339 15.1135 64.989 15.1135 63.0832V60.3129H8.21289Z" fill="#ED5132"/>
<path d="M11.2095 51.3031C11.7105 51.3031 12.1167 50.8969 12.1167 50.3959C12.1167 49.8948 11.7105 49.4886 11.2095 49.4886C10.7084 49.4886 10.3022 49.8948 10.3022 50.3959C10.3022 50.8969 10.7084 51.3031 11.2095 51.3031Z" fill="#DDDDDD"/>
<path d="M18.5962 58.4831C19.1115 58.4831 19.5292 58.0653 19.5292 57.55C19.5292 57.0347 19.1115 56.6169 18.5962 56.6169C18.0808 56.6169 17.6631 57.0347 17.6631 57.55C17.6631 58.0653 18.0808 58.4831 18.5962 58.4831Z" fill="#DDDDDD"/>
<path d="M8.27837 6.97134L7.38452 7.16072L8.41821 7.45395C8.68544 7.52974 8.92716 7.67647 9.11772 7.87856C9.30828 8.08066 9.44056 8.33058 9.50052 8.6018L9.69221 9.46841L9.88391 8.6018C9.94387 8.33058 10.0762 8.08066 10.2667 7.87856C10.4573 7.67647 10.699 7.52974 10.9662 7.45395L11.9999 7.16072L11.1061 6.97134C10.8225 6.91124 10.5616 6.77224 10.3536 6.57035C10.1456 6.36847 9.99879 6.11192 9.93021 5.83026L9.69221 4.85303L9.45421 5.83026C9.38563 6.11192 9.23887 6.36847 9.03084 6.57035C8.8228 6.77224 8.56196 6.91124 8.27837 6.97134Z" fill="#C2C2FF"/>
<path d="M60.8938 6.97134L60 7.16072L61.0337 7.45395C61.3009 7.52974 61.5426 7.67647 61.7332 7.87856C61.9238 8.08066 62.056 8.33058 62.116 8.6018L62.3077 9.46841L62.4994 8.6018C62.5594 8.33058 62.6916 8.08066 62.8822 7.87856C63.0727 7.67647 63.3145 7.52974 63.5817 7.45395L64.6154 7.16072L63.7215 6.97134C63.4379 6.91124 63.1771 6.77224 62.9691 6.57035C62.761 6.36847 62.6143 6.11192 62.5457 5.83026L62.3077 4.85303L62.0697 5.83026C62.0011 6.11192 61.8544 6.36847 61.6463 6.57035C61.4383 6.77224 61.1774 6.91124 60.8938 6.97134Z" fill="#FF8A80"/>
</g>
<defs>
<clipPath id="clip0_0_184">
<rect width="72" height="72" fill="white" transform="translate(0 0.545288)"/>
</clipPath>
</defs>
</svg>

<svg width="72" height="73" fill="none" xmlns="http://www.w3.org/2000/svg"><g clip-path="url(#a)"><path d="M66.402 31.02c2.19-1.804 3.963-3.705 3.997-6.923h-7.993c.036 3.214 1.818 5.12 3.996 6.923-2.171 1.795-3.976 3.705-3.996 6.923h7.993c-.048-3.21-1.843-5.095-3.997-6.923z" fill="#fff"/><path d="M70.923 24.866h-9.041a.769.769 0 1 1 0-1.538h9.041a.77.77 0 0 1 0 1.538zm0 13.846h-9.041a.769.769 0 0 1 0-1.538h9.041a.769.769 0 1 1 0 1.538z" fill="#1F81B0"/><path d="M15.523 32.29v-2.524l-1.793-.439a6.168 6.168 0 0 0-.543-1.314l.961-1.583-1.785-1.786-1.579.959a6.163 6.163 0 0 0-1.312-.547l-.44-1.798H6.507L6.07 25.05a6.17 6.17 0 0 0-1.314.543l-1.583-.961-1.786 1.785.959 1.579a6.162 6.162 0 0 0-.547 1.313L0 29.75v2.524l1.793.438c.13.458.312.899.543 1.315l-.961 1.583 1.785 1.785 1.579-.958c.415.232.855.416 1.312.547l.44 1.798h2.524l.439-1.793c.457-.13.898-.312 1.314-.543l1.583.961 1.785-1.785-.958-1.58c.232-.414.416-.855.547-1.312l1.798-.44z" fill="#ED5132"/><path d="M7.761 34.044a3.024 3.024 0 1 0 0-6.048 3.024 3.024 0 0 0 0 6.048z" fill="#fff"/><path d="m16.414 41.92 19.988-11.734 19.962 11.3v19.326L36.389 72.545 16.414 61.262V41.92z" fill="#F9F9F9"/><path d="M16.414 41.92v19.342l19.975 11.283V53.202L16.414 41.92zM36.389 53.202v19.343l19.975-11.733V41.486L36.389 53.202z" fill="#1F81B0"/><path d="m36.389 53.202-5.427 6.531-19.454-11.672 4.906-6.142 19.975 11.283zM36.389 53.202l5.88 6.228 19-11.37-4.905-6.575-19.975 11.717z" fill="#005680"/><path d="M50.802 21.199c0-7.918-6.475-14.336-14.462-14.336-7.988 0-14.463 6.419-14.463 14.336 0 4.265 1.88 8.094 4.862 10.72 2.527 2.224 4.058 5.381 4.058 8.765v1.04h11.085v-1.04c0-3.383 1.53-6.54 4.058-8.766 2.982-2.625 4.862-6.454 4.862-10.72zM36.352 3.85a.77.77 0 0 1-.768-.77V1.316a.77.77 0 1 1 1.538 0V3.08a.77.77 0 0 1-.77.77zM21.788 9.944a.766.766 0 0 1-.545-.226L20 8.468a.769.769 0 0 1 1.09-1.084l1.243 1.249c.455.457.099 1.311-.546 1.311zm-4.952 9.996h-1.757a.77.77 0 1 1 0-1.538h1.757a.769.769 0 1 1 0 1.538zm40.865-.072h-1.758a.77.77 0 1 1 0-1.538H57.7a.769.769 0 1 1 0 1.538zm-6.76-9.975c-.645 0-1-.854-.546-1.311l1.243-1.25a.768.768 0 1 1 1.09 1.086l-1.242 1.249a.767.767 0 0 1-.545.226z" fill="#FFBF4D"/><path d="M42.138 37.042H30.64a2.344 2.344 0 1 0 0 4.688h11.498a2.344 2.344 0 1 0 0-4.688z" fill="#1F81B0"/><path d="M41.73 41.73H31.048v2.84c0 1.02.826 1.847 1.846 1.847h6.99c1.02 0 1.846-.827 1.846-1.846V41.73z" fill="#1F81B0"/><path d="M45.922 22.051c0-.76-.241-1.461-.648-2.025a4.279 4.279 0 0 0 .328-1.65c0-2.322-1.837-4.205-4.103-4.205a4.05 4.05 0 0 0-.434.024c-.553-1.303-2.082-2.24-3.882-2.24-1.565 0-2.924.707-3.616 1.748a4.887 4.887 0 0 0-1.854-.358c-2.266 0-4.103 1.485-4.103 3.317 0 .41.093.804.262 1.168-1.777.583-3.048 2.134-3.048 3.957 0 2.322 2.063 4.204 4.61 4.204.946 0 1.826-.26 2.558-.707.671 1.193 1.995 2.005 3.52 2.005 1.548 0 2.89-.839 3.55-2.063-.34 1.23.33 2.516 1.517 2.91 1.13.322 1.838.924 2.363 1.965l2.632-2.278-1.878-2.57c1.292-.439 2.226-1.706 2.226-3.202z" fill="#FFF0DC"/><path d="M35.038 15.728a.777.777 0 0 0 1.555 0c0-1.253-.663-2.4-1.78-3.165a3.706 3.706 0 0 0-1.206 1.084c.89.475 1.43 1.247 1.43 2.081zm-2.915 7.463a.778.778 0 0 0-1.397-.682 4.456 4.456 0 0 0-.203 3.362 4.82 4.82 0 0 0 1.446-.574 2.857 2.857 0 0 1 .154-2.107zm7.514-.505a.769.769 0 0 1-.768-.752v-.02c-.02-.841-.696-1.516-1.507-1.495a.773.773 0 0 1-.733-1.048.77.77 0 0 1 .7-.49c1.663-.034 3.038 1.31 3.078 2.997v.022a.767.767 0 0 1-.752.786h-.018zm4.229-1.901c-.455-.005-.924.259-.924.778 0 .506.479.806.941.777h.008a3.384 3.384 0 0 0 2.003-.718 3.433 3.433 0 0 0-.609-1.579 1.85 1.85 0 0 1-1.42.742zm-10.488.01a.77.77 0 0 1-.757-.64c-.173-1.02-.941-1.745-1.818-1.723a.769.769 0 1 1-.036-1.537c1.654-.042 3.069 1.224 3.37 3.002a.777.777 0 0 1-.759.898z" fill="#FFCE99"/><path d="M61.114 69.435C67.126 69.435 72 64.56 72 58.548c0-6.013-4.874-10.887-10.886-10.887-6.011 0-10.885 4.874-10.885 10.887 0 6.013 4.874 10.887 10.886 10.887z" fill="#70DA40"/><path d="M60.862 62.11a.77.77 0 0 1-.77-.77v-1.286c0-1.394.916-2.357 1.773-3.15.853-.788 1.186-1.8.868-2.64-.629-1.665-3.9-1.563-3.9.43a.77.77 0 0 1-1.538 0c0-3.679 5.661-4.192 6.877-.974.544 1.438.06 3.091-1.263 4.314-.81.749-1.278 1.32-1.278 2.02v1.286a.77.77 0 0 1-.769.77zM61.114 65.694a1.01 1.01 0 1 0 0-2.022 1.01 1.01 0 0 0 0 2.022zM11.663 69.435c6.012 0 10.886-4.874 10.886-10.887 0-6.013-4.874-10.887-10.886-10.887S.778 52.535.778 58.548c0 6.013 4.873 10.887 10.885 10.887z" fill="#fff"/><path d="M11.7 66.534h-.074a3.414 3.414 0 0 1-3.413-3.414v-9.028h6.9v9.028a3.414 3.414 0 0 1-3.413 3.414z" fill="#F7634B"/><path d="M16.03 54.861H7.296a.77.77 0 0 1 0-1.538h8.732a.77.77 0 0 1 0 1.538z" fill="#fff"/><path d="M8.213 60.313v2.77a3.45 3.45 0 1 0 6.9 0v-2.77h-6.9z" fill="#ED5132"/><path d="M11.21 51.303a.907.907 0 1 0 0-1.814.907.907 0 0 0 0 1.814zM18.596 58.483a.933.933 0 1 0 0-1.866.933.933 0 0 0 0 1.866z" fill="#DDD"/><path d="m8.278 6.971-.893.19 1.033.293a1.538 1.538 0 0 1 1.083 1.148l.191.866.192-.866a1.539 1.539 0 0 1 1.082-1.148L12 7.16l-.894-.19a1.538 1.538 0 0 1-1.176-1.14l-.238-.978-.238.977a1.538 1.538 0 0 1-1.176 1.141z" fill="#C2C2FF"/><path d="m60.894 6.971-.894.19 1.034.293a1.539 1.539 0 0 1 1.082 1.148l.192.866.191-.866a1.538 1.538 0 0 1 1.083-1.148l1.033-.293-.893-.19a1.538 1.538 0 0 1-1.176-1.14l-.238-.978-.238.977a1.538 1.538 0 0 1-1.176 1.141z" fill="#FF8A80"/></g><defs><clipPath id="a"><path fill="#fff" transform="translate(0 .545)" d="M0 0h72v72H0z"/></clipPath></defs></svg>
